X: 138
T:Danza dos Ferreiros
M:3/4
L:1/8
Q:200
C:Trad
R:Jota
K:C
"~"G2 | C2E2 "~"G2 | C4 (3EDC | B,2 D2  (3FED | E2C2 "~"G2| C2E2 "~"G2|
C4 (3EDC | B,2 D2 (3FED |1 C4 :|2  C3 G/"F."c/ G"F."c/G/ | "~"E2 C" etc.
.."G G>G | E2 CG G>G | A>G F>E D>C |B,3 G G>G | E2CG G>G |E2CG G>G | A>G
 F>E F>D |C4 ||

